assets/Peacock/Flat/peacock_flat.svg

<svg width="32" height="32" viewBox="0 0 32 32" fill="none" xmlns="http://www.w3.org/2000/svg">
<path d="M15.5 16L10.395 21.782L6.52998 24.39C6.39998 24.48 6.25998 24.56 6.10998 24.62C4.91998 25.12 3.54998 24.55 3.05998 23.36C2.56643 22.1853 3.11547 20.8353 4.27428 20.3294C3.01018 20.2999 2 19.2714 2 18C2 16.7352 2.99987 15.7106 4.26433 15.6618C3.11956 15.1492 2.58911 13.8079 3.07001 12.64C3.55134 11.4711 4.87214 10.91 6.05615 11.355C5.19022 10.4418 5.20483 8.99513 6.09998 8.09998C6.99699 7.20297 8.44785 7.19017 9.36067 8.06158C8.90529 6.8836 9.46613 5.56325 10.64 5.07002C11.8147 4.57645 13.1648 5.12555 13.6707 6.27483C13.6998 5.01048 14.7285 4 16 4C17.2648 4 18.2893 4.99977 18.3383 6.26413C18.851 5.11946 20.1922 4.58907 21.36 5.06995C22.5287 5.55118 23.0897 6.88117 22.6453 8.05586C23.5585 7.19023 25.005 7.20493 25.9 8.09998C26.7968 8.99682 26.8098 10.4473 25.9389 11.3601C27.117 10.8958 28.4468 11.4663 28.94 12.6401C29.4336 13.8147 28.8845 15.1648 27.7256 15.6707C28.9898 15.7001 30 16.7286 30 18C30 19.2649 29.0002 20.2893 27.7358 20.3383C28.8805 20.851 29.4109 22.1922 28.93 23.36C28.44 24.55 27.07 25.11 25.88 24.62C25.77 24.57 25.67 24.52 25.57 24.46C25.5 24.42 25.44 24.38 25.37 24.33L21.597 21.8682L15.5 16Z" fill="#00D26A"/>
<path d="M16.26 12.09C12.67 11.95 9.64998 14.74 9.50998 18.33C9.45998 19.6 9.77998 20.79 10.36 21.82L16 18V25.08C19.47 25.08 22.35 22.34 22.49 18.84C22.64 15.26 19.85 12.23 16.26 12.09Z" fill="#C3EF3C"/>
<path d="M14.9407 6.77844C15.1111 6.35932 15.501 6.33005 15.9804 6.33005C16.4598 6.33005 16.8889 6.35929 17.0593 6.77837C17.1177 6.6406 17.15 6.4891 17.15 6.33005C17.15 5.69493 16.6351 5.18005 16 5.18005C15.3648 5.18005 14.85 5.69493 14.85 6.33005C14.85 6.48913 14.8823 6.64065 14.9407 6.77844Z" fill="#FFF478"/>
<path d="M10.7201 8.02634C10.7255 7.5813 11.0644 7.67818 11.5 7.5C11.95 7.31001 12.37 6.90994 12.69 7.2299C12.69 7.22658 12.69 7.22327 12.69 7.21995C12.69 6.58482 12.1751 6.06995 11.54 6.06995C10.9049 6.06995 10.39 6.58482 10.39 7.21995C10.39 7.53407 10.516 7.81878 10.7201 8.02634Z" fill="#FFF478"/>
<path d="M8.8184 9.32373C8.81561 9.32249 8.81281 9.32126 8.81 9.32002C8.4 9.14002 8.08998 9.52455 7.74998 9.86455C7.41231 10.2022 7.14111 10.3932 7.30654 10.8114C6.89156 10.6378 6.59998 10.2279 6.59998 9.74998C6.59998 9.11485 7.11485 8.59998 7.74998 8.59998C8.23451 8.59998 8.64905 8.89963 8.8184 9.32373Z" fill="#FFF478"/>
<path d="M5.23003 14.69C5.22669 14.69 5.22335 14.69 5.22001 14.69C4.58488 14.69 4.07001 14.1751 4.07001 13.54C4.07001 12.9049 4.58488 12.39 5.22001 12.39C5.5341 12.39 5.81879 12.5159 6.02634 12.7201C5.58133 12.7255 5.67817 13.0645 5.5 13.5C5.32 13.94 4.91003 14.36 5.23003 14.69Z" fill="#FFF478"/>
<path d="M4.7783 16.9406C4.35923 17.1111 4.5 17.5206 4.5 17.9999C4.5 18.4793 4.35926 18.8889 4.77838 19.0593C4.6406 19.1177 4.48907 19.15 4.32999 19.15C3.69487 19.15 3.17999 18.6351 3.17999 18C3.17999 17.3648 3.69487 16.85 4.32999 16.85C4.48904 16.85 4.64054 16.8823 4.7783 16.9406Z" fill="#FFF478"/>
<path d="M6.02638 23.28C5.81883 23.4841 5.53413 23.6101 5.22001 23.6101C4.58488 23.6101 4.07001 23.0952 4.07001 22.4601C4.07001 21.8249 4.58488 21.3101 5.22001 21.3101C5.22333 21.3101 5.22666 21.3101 5.22997 21.3101C4.91001 21.6301 5.04004 21.9096 5.23003 22.3596C5.40821 22.7951 5.58136 23.2746 6.02638 23.28Z" fill="#FFF478"/>
<path d="M27.67 19.15C28.3051 19.15 28.82 18.6351 28.82 18C28.82 17.3648 28.3051 16.85 27.67 16.85C27.511 16.85 27.3595 16.8823 27.2217 16.9406C27.6408 17.1111 27.5 17.5206 27.5 17.9999C27.5 18.4793 27.6408 18.8889 27.2216 19.0593C27.3594 19.1177 27.5109 19.15 27.67 19.15Z" fill="#FFF478"/>
<path d="M27.93 13.54C27.93 14.1751 27.4151 14.69 26.78 14.69C26.7767 14.69 26.7733 14.69 26.77 14.69C27.09 14.37 26.69 13.95 26.5 13.5C26.3218 13.0645 26.4187 12.7255 25.9737 12.7201C26.1812 12.5159 26.4659 12.39 26.78 12.39C27.4151 12.39 27.93 12.9049 27.93 13.54Z" fill="#FFF478"/>
<path d="M24.689 10.8132C25.1063 10.6407 25.4 10.2296 25.4 9.74998C25.4 9.11485 24.8851 8.59998 24.25 8.59998C23.7704 8.59998 23.3593 8.89356 23.1868 9.31082L23.1899 9.30994C23.5999 9.13994 23.8012 9.40998 24.1412 9.74998C24.4812 10.09 24.8599 10.3999 24.6899 10.8099L24.689 10.8132Z" fill="#FFF478"/>
<path d="M19.31 7.22987C19.64 6.9099 20.02 7.0499 20.46 7.2299C20.8956 7.40808 21.2745 7.58128 21.2799 8.02632C21.4841 7.81877 21.61 7.53407 21.61 7.21995C21.61 6.58482 21.0951 6.06995 20.46 6.06995C19.8249 6.06995 19.31 6.58482 19.31 7.21995C19.31 7.22326 19.31 7.22656 19.31 7.22987Z" fill="#FFF478"/>
<path d="M26.78 23.6101C27.4151 23.6101 27.93 23.0952 27.93 22.4601C27.93 21.8249 27.4151 21.3101 26.78 21.3101C26.7767 21.3101 26.7734 21.3101 26.7701 21.3101C27.09 21.6401 26.95 21.9196 26.77 22.3596C26.5918 22.7951 26.4187 23.2746 25.9736 23.28C26.1812 23.4841 26.4659 23.6101 26.78 23.6101Z" fill="#FFF478"/>
<path d="M16 6.07007C15.52 6.07007 15.11 6.36007 14.94 6.78007C15.11 7.20007 15.53 7.49007 16 7.49007C16.47 7.49007 16.89 7.20007 17.06 6.78007C16.89 6.36007 16.48 6.07007 16 6.07007Z" fill="#00A6ED"/>
<path d="M11.43 6.97996C10.99 7.15996 10.72 7.58996 10.72 8.03996C11.04 8.35996 11.53 8.46995 11.98 8.28996C12.42 8.10996 12.69 7.67996 12.69 7.22996C12.37 6.90996 11.88 6.78996 11.43 6.97996Z" fill="#00A6ED"/>
<path d="M7.31 10.82C7.14 10.4 7.22 9.90002 7.56 9.56002C7.9 9.22002 8.4 9.14002 8.81 9.32002C8.98 9.73002 8.9 10.23 8.56 10.57C8.23 10.91 7.73 10.99 7.31 10.82Z" fill="#00A6ED"/>
<path d="M4.98003 13.43C4.80003 13.87 4.91003 14.36 5.23003 14.69C5.68003 14.69 6.11003 14.42 6.29003 13.98C6.47003 13.54 6.36003 13.05 6.04003 12.72C5.59003 12.72 5.16003 12.99 4.98003 13.43Z" fill="#00A6ED"/>
<path d="M4.78001 19.0599C4.36001 18.8899 4.07001 18.4799 4.07001 17.9999C4.07001 17.5199 4.36001 17.1099 4.78001 16.9399C5.20001 17.1099 5.49001 17.5299 5.49001 17.9999C5.49001 18.4699 5.20001 18.8899 4.78001 19.0599Z" fill="#00A6ED"/>
<path d="M4.98002 22.5701C5.16002 23.0101 5.59002 23.2801 6.04002 23.2801C6.36002 22.9601 6.47002 22.4701 6.29002 22.0201C6.11002 21.5801 5.68002 21.3101 5.23002 21.3101C4.91002 21.6301 4.79002 22.1201 4.98002 22.5701Z" fill="#00A6ED"/>
<path d="M27.22 16.9399C27.64 17.1099 27.93 17.5199 27.93 17.9999C27.93 18.4799 27.64 18.8899 27.22 19.0599C26.8 18.8899 26.51 18.4699 26.51 17.9999C26.51 17.5299 26.8 17.1099 27.22 16.9399Z" fill="#00A6ED"/>
<path d="M27.02 13.43C26.84 12.99 26.41 12.72 25.96 12.72C25.64 13.04 25.53 13.53 25.71 13.98C25.89 14.43 26.32 14.69 26.77 14.69C27.09 14.37 27.21 13.88 27.02 13.43Z" fill="#00A6ED"/>
<path d="M23.1899 9.30994C23.5999 9.13994 24.0999 9.21994 24.4399 9.55994C24.7799 9.89994 24.8599 10.3999 24.6899 10.8099C24.2799 10.9799 23.7799 10.8999 23.4399 10.5599C23.0999 10.2299 23.0199 9.72994 23.1899 9.30994Z" fill="#00A6ED"/>
<path d="M20.57 6.97991C20.13 6.79991 19.64 6.90991 19.31 7.22991C19.31 7.67991 19.58 8.10991 20.02 8.28991C20.46 8.46991 20.95 8.35991 21.28 8.03991C21.28 7.58991 21.01 7.15991 20.57 6.97991Z" fill="#00A6ED"/>
<path d="M26.77 21.3101C27.09 21.6401 27.2 22.1301 27.02 22.5701C26.84 23.0101 26.41 23.2801 25.96 23.2801C25.64 22.9501 25.53 22.4601 25.71 22.0201C25.89 21.5801 26.32 21.3101 26.77 21.3101Z" fill="#00A6ED"/>
<path d="M12 30V29.78C12 29.35 12.35 29 12.77 29H15.2L16 25L16.5 24.5L17 25L16.2 29H17.2L18 25L18.5 24.5L19 25L18.2 29H20.22C20.65 29 21 29.35 21 29.78V30H12Z" fill="#FCD53F"/>
<path d="M13.36 10L12.6 14.33L12.65 14C12.4407 15.1523 11.55 21.34 11.55 21.34C11.26 23.27 12.75 25 14.7 25H23.39C23.69 25 23.9 24.7 23.8 24.42C23.7016 24.1338 23.5757 23.8591 23.4249 23.5995L16.6849 19.7801C16.1749 19.4301 15.99 17.72 15.99 17.06V12.36C15.9935 11.9078 15.8675 11.4846 15.647 11.125L15.7617 10.6836L15.2734 10.6601C14.8499 10.2517 14.2735 10 13.64 10H13.36Z" fill="#00A6ED"/>
<path d="M15.27 10.6569V9.4C15.27 9.24 15.41 9.12 15.57 9.15C16.44 9.28 17.12 9.96 17.25 10.83C17.28 10.99 17.16 11.13 17 11.13H15.65C15.5441 10.9563 15.4161 10.7973 15.27 10.6569Z" fill="#1C1C1C"/>
<path d="M12.6 14.33L13.36 10H10.75C10.46 10 10.32 10.34 10.51 10.55L12.11 12.26C12.55 12.73 12.75 13.37 12.65 14L12.6 14.33Z" fill="#1C1C1C"/>
<path d="M15.04 11.52C15.04 11.8072 14.8072 12.04 14.52 12.04C14.2328 12.04 14 11.8072 14 11.52C14 11.2328 14.2328 11 14.52 11C14.8072 11 15.04 11.2328 15.04 11.52Z" fill="#1C1C1C"/>
<path d="M21.98 22.0601L16.86 18.6701C16.85 18.6701 16.85 18.6601 16.84 18.6601C16.33 18.3101 15.99 17.7201 15.99 17.0601V21.1401C15.99 22.5101 17.1 23.6201 18.47 23.6201H23.43C23.08 23.0001 22.59 22.4601 21.98 22.0601Z" fill="#0074BA"/>
</svg>

<svg xmlns="http://www.w3.org/2000/svg" width="32" height="32" fill="none"><path fill="#00D26A" d="m15.5 16-5.105 5.782L6.53 24.39a2.327 2.327 0 0 1-3.47-1.03 2.327 2.327 0 0 1 1.214-3.03A2.326 2.326 0 0 1 2 18c0-1.265 1-2.29 2.264-2.338A2.336 2.336 0 0 1 3.07 12.64a2.331 2.331 0 0 1 2.986-1.285A2.336 2.336 0 0 1 6.1 8.1a2.336 2.336 0 0 1 3.26-.038 2.328 2.328 0 0 1 1.28-2.992 2.332 2.332 0 0 1 3.03 1.205A2.326 2.326 0 0 1 16 4c1.265 0 2.29 1 2.338 2.264A2.336 2.336 0 0 1 21.36 5.07a2.335 2.335 0 0 1 1.285 2.986A2.336 2.336 0 0 1 25.9 8.1c.897.897.91 2.347.039 3.26a2.331 2.331 0 0 1 3.001 1.28 2.327 2.327 0 0 1-1.214 3.03A2.326 2.326 0 0 1 30 18c0 1.265-1 2.29-2.264 2.338a2.336 2.336 0 0 1 1.194 3.022 2.336 2.336 0 0 1-3.05 1.26 3.013 3.013 0 0 1-.51-.29l-3.773-2.462L15.5 16Z"/><path fill="#C3EF3C" d="M16.26 12.09a6.496 6.496 0 0 0-6.75 6.24c-.05 1.27.27 2.46.85 3.49L16 18v7.08c3.47 0 6.35-2.74 6.49-6.24a6.488 6.488 0 0 0-6.23-6.75Z"/><path fill="#FFF478" d="M14.94 6.778c.171-.419.561-.448 1.04-.448.48 0 .909.03 1.08.448a1.15 1.15 0 1 0-2.119 0ZM10.72 8.026c.005-.445.344-.348.78-.526.45-.19.87-.59 1.19-.27v-.01a1.15 1.15 0 1 0-1.97.806ZM8.818 9.324 8.81 9.32c-.41-.18-.72.205-1.06.545-.338.337-.609.528-.443.946a1.15 1.15 0 1 1 1.511-1.487ZM5.23 14.69h-.01a1.15 1.15 0 1 1 .806-1.97c-.445.005-.348.345-.526.78-.18.44-.59.86-.27 1.19ZM4.778 16.94c-.419.171-.278.58-.278 1.06 0 .48-.14.889.278 1.06a1.15 1.15 0 1 1 0-2.119ZM6.026 23.28a1.15 1.15 0 1 1-.806-1.97h.01c-.32.32-.19.6 0 1.05.178.435.351.915.796.92ZM27.67 19.15a1.15 1.15 0 1 0-.448-2.21c.419.171.278.58.278 1.06 0 .48.14.889-.278 1.06.137.058.289.09.448.09ZM27.93 13.54a1.15 1.15 0 0 1-1.15 1.15h-.01c.32-.32-.08-.74-.27-1.19-.178-.435-.081-.774-.526-.78a1.15 1.15 0 0 1 1.956.82ZM24.689 10.813a1.15 1.15 0 1 0-1.502-1.502l.003-.001c.41-.17.611.1.951.44.34.34.719.65.549 1.06l-.001.003ZM19.31 7.23c.33-.32.71-.18 1.15 0 .436.178.814.351.82.796a1.15 1.15 0 1 0-1.97-.806v.01ZM26.78 23.61a1.15 1.15 0 0 0 0-2.3h-.01c.32.33.18.61 0 1.05-.178.435-.351.915-.796.92.207.204.492.33.806.33Z"/><path fill="#00A6ED" d="M16 6.07c-.48 0-.89.29-1.06.71.17.42.59.71 1.06.71.47 0 .89-.29 1.06-.71-.17-.42-.58-.71-1.06-.71ZM11.43 6.98c-.44.18-.71.61-.71 1.06.32.32.81.43 1.26.25.44-.18.71-.61.71-1.06-.32-.32-.81-.44-1.26-.25ZM7.31 10.82c-.17-.42-.09-.92.25-1.26.34-.34.84-.42 1.25-.24a1.15 1.15 0 0 1-1.5 1.5ZM4.98 13.43c-.18.44-.07.93.25 1.26.45 0 .88-.27 1.06-.71.18-.44.07-.93-.25-1.26-.45 0-.88.27-1.06.71ZM4.78 19.06c-.42-.17-.71-.58-.71-1.06 0-.48.29-.89.71-1.06.42.17.71.59.71 1.06 0 .47-.29.89-.71 1.06ZM4.98 22.57c.18.44.61.71 1.06.71.32-.32.43-.81.25-1.26-.18-.44-.61-.71-1.06-.71-.32.32-.44.81-.25 1.26ZM27.22 16.94c.42.17.71.58.71 1.06 0 .48-.29.89-.71 1.06-.42-.17-.71-.59-.71-1.06 0-.47.29-.89.71-1.06ZM27.02 13.43c-.18-.44-.61-.71-1.06-.71-.32.32-.43.81-.25 1.26.18.45.61.71 1.06.71.32-.32.44-.81.25-1.26ZM23.19 9.31a1.15 1.15 0 0 1 1.5 1.5 1.15 1.15 0 0 1-1.5-1.5ZM20.57 6.98a1.17 1.17 0 0 0-1.26.25c0 .45.27.88.71 1.06.44.18.93.07 1.26-.25 0-.45-.27-.88-.71-1.06ZM26.77 21.31c.32.33.43.82.25 1.26-.18.44-.61.71-1.06.71a1.17 1.17 0 0 1-.25-1.26c.18-.44.61-.71 1.06-.71Z"/><path fill="#FCD53F" d="M12 30v-.22c0-.43.35-.78.77-.78h2.43l.8-4 .5-.5.5.5-.8 4h1l.8-4 .5-.5.5.5-.8 4h2.02c.43 0 .78.35.78.78V30h-9Z"/><path fill="#00A6ED" d="m13.36 10-.76 4.33.05-.33c-.21 1.152-1.1 7.34-1.1 7.34A3.183 3.183 0 0 0 14.7 25h8.69c.3 0 .51-.3.41-.58a4.632 4.632 0 0 0-.375-.82l-6.74-3.82c-.51-.35-.695-2.06-.695-2.72v-4.7a2.32 2.32 0 0 0-.343-1.235l.115-.441-.489-.024c-.423-.408-1-.66-1.633-.66h-.28Z"/><path fill="#1C1C1C" d="M15.27 10.657V9.4c0-.16.14-.28.3-.25.87.13 1.55.81 1.68 1.68.03.16-.09.3-.25.3h-1.35a2.361 2.361 0 0 0-.38-.473ZM12.6 14.33l.76-4.33h-2.61c-.29 0-.43.34-.24.55l1.6 1.71c.44.47.64 1.11.54 1.74l-.05.33ZM15.04 11.52a.52.52 0 1 1-1.04 0 .52.52 0 0 1 1.04 0Z"/><path fill="#0074BA" d="m21.98 22.06-5.12-3.39c-.01 0-.01-.01-.02-.01-.51-.35-.85-.94-.85-1.6v4.08a2.48 2.48 0 0 0 2.48 2.48h4.96c-.35-.62-.84-1.16-1.45-1.56Z"/></svg>
